symbolic/24x24/mimetypes/application-vnd.comicbook+zip.svg

<svg xmlns="http://www.w3.org/2000/svg" width="24" height="24" version="1.1">
 <path style="opacity:0.2" d="M 5,2.5 C 4.446,2.5 4,2.946 4,3.5 V 21.5 C 4,22.054 4.446,22.5 5,22.5 H 19 C 19.554,22.5 20,22.054 20,21.5 V 8.5 L 14,2.5 Z"/>
 <path style="fill:#ffba3a" d="M 5,2 C 4.446,2 4,2.446 4,3 l 0,18 c 0,0.554 0.446,1 1,1 l 14,0 c 0.554,0 1,-0.446 1,-1 L 20,8 14,2 Z"/>
 <path style="opacity:0.2" d="M 20,8.5 14,2.5 V 7.5 C 14,8.054 14.446,8.5 15,8.5 Z"/>
 <path style="fill:#ffdea2" d="M 20,8 14,2 V 7 C 14,7.554 14.446,8 15,8 Z"/>
 <path style="opacity:0.2;fill:#ffffff" d="M 5 2 C 4.446 2 4 2.446 4 3 L 4 3.5 C 4 2.946 4.446 2.5 5 2.5 L 14 2.5 L 14 2 L 5 2 z"/>
 <path style="fill:#3f3f3f" d="m 10,11 c 0,3 0,3 -0.383789,3 C 9.216075,14 8.74039,13.90588 8.457031,13.410156 8.070576,12.734182 8.5,11 8.5,11 6,11 5,13.646491 5,15.380859 5,18 7,19 8.2503865,19 c 0,0 -0.734693,-1.708929 0.236328,-2 0.526394,-0.08365 1.21674,0.488675 1.5136715,1 0,0 -0.1068365,-0.984745 0.657228,-1 0.764063,-0.01526 1.213052,0.841758 1.342386,2 0.129334,-1.158242 0.578324,-2.015254 1.342387,-2 0.764064,0.01525 0.657227,1 0.657227,1 0.296932,-0.511325 0.987278,-1.083647 1.513672,-1 0.971021,0.291071 0.236328,2 0.236328,2 C 17,19 19,18 19,15.380859 19,13.646491 18,11 15.5,11 c 0,0 0.429424,1.734182 0.04297,2.410156 C 15.25961,13.905877 14.783926,14 14.383789,14 14,14 14,14 14,11 l -1.5,1 -0.5,0 -0.5,0 z"/>
</svg>

<svg xmlns="http://www.w3.org/2000/svg" width="24" height="24"><path style="opacity:.2" d="M5 2.5c-.554 0-1 .446-1 1v18c0 .554.446 1 1 1h14c.554 0 1-.446 1-1v-13l-6-6z"/><path style="fill:#ffba3a" d="M5 2c-.554 0-1 .446-1 1v18c0 .554.446 1 1 1h14c.554 0 1-.446 1-1V8l-6-6z"/><path style="opacity:.2" d="m20 8.5-6-6v5c0 .554.446 1 1 1z"/><path style="fill:#ffdea2" d="m20 8-6-6v5c0 .554.446 1 1 1z"/><path style="opacity:.2;fill:#fff" d="M5 2c-.554 0-1 .446-1 1v.5c0-.554.446-1 1-1h9V2H5z"/><path style="fill:#3f3f3f" d="M10 11c0 3 0 3-.384 3-.4 0-.876-.094-1.159-.59C8.071 12.734 8.5 11 8.5 11 6 11 5 13.646 5 15.38 5 18 7 19 8.25 19c0 0-.734-1.709.237-2 .526-.084 1.216.489 1.513 1 0 0-.106-.985.658-1 .764-.015 1.213.842 1.342 2 .13-1.158.578-2.015 1.342-2 .764.015.658 1 .658 1 .297-.511.987-1.084 1.513-1 .971.291.237 2 .237 2C17 19 19 18 19 15.38c0-1.734-1-4.38-3.5-4.38 0 0 .43 1.734.043 2.41-.283.496-.76.59-1.16.59C14 14 14 14 14 11l-1.5 1h-1z"/></svg>
